X: 14351
T: Gallowglass, The
R: jig
M: 6/8
K: Aminor
A/B/|:cBA eBd|cAA A2 A/B/|cBA e^fg|dBG G2 A/B/|
cBA eBd|cea e2 d|cBA ^GAB|1 cAA A2 A/B/:|2 cAA A2 e||
|:a^ga efd|cAA A2A/B/|cBA e^fg|dBG G2 e|
a^ga efd|cde fed|cBA ^GAB|cAA A2 e|
a^ga efd|cAA A2 A/B/|cBA e^fg|dBG G2 e|
aeg fdB|ecA B^GE|ABc dBe|cAA A2||

